src/assets/svgs/refactor/bridge-network-mainnet.svg

<svg fill="none" height="46" viewBox="0 0 46 46" width="46" xmlns="http://www.w3.org/2000/svg"><path d="m23 46c12.7025 0 23-10.2975 23-23s-10.2975-23-23-23-23 10.2975-23 23 10.2975 23 23 23z" fill="#9bb8ff" opacity=".4"/><path d="m23.4753 28.7308 4.8752-1.7285c.2082-.0692.4295.0554.4942.2777.0352.1196.0176.2501-.0462.3548l-4.9085 7.5268c-.349.5238-1.0293.6473-1.5199.2747-.1-.0751-.187-.168-.2573-.2747l-4.9085-7.5268c-.1185-.1957-.0667-.4566.1157-.5831.0981-.0682.2203-.0859.3323-.0494l4.8752 1.7285c.3073.1127.6405.1127.9478 0zm6.0229-5.4938c.3101-.1117.4767-.4705.3721-.8015-.0111-.0356-.0259-.0702-.0426-.1028l-5.8785-11.3959c-.3018-.5594-.971-.7511-1.4939-.4289-.1667.1028-.3055.251-.4018.4289l-5.8785 11.3959c-.1574.3064-.0537.6908.2332.8588.0306.0178.063.0336.0963.0455l6.4969 2.3313z" fill="#396ce8"/></svg>

<svg width="46" height="46" viewBox="0 0 46 46" fill="none" xmlns="http://www.w3.org/2000/svg">
<path opacity="0.4" d="M23 46C35.7025 46 46 35.7025 46 23C46 10.2975 35.7025 0 23 0C10.2975 0 0 10.2975 0 23C0 35.7025 10.2975 46 23 46Z" fill="#9BB8FF"/>
<path d="M23.4753 28.7308L28.3505 27.0023C28.5587 26.9331 28.78 27.0577 28.8447 27.28C28.8799 27.3996 28.8623 27.5301 28.7985 27.6348L23.89 35.1616C23.541 35.6854 22.8607 35.8089 22.3701 35.4363C22.2701 35.3612 22.1831 35.2683 22.1128 35.1616L17.2043 27.6348C17.0858 27.4391 17.1376 27.1782 17.32 27.0517C17.4181 26.9835 17.5403 26.9658 17.6523 27.0023L22.5275 28.7308C22.8348 28.8435 23.168 28.8435 23.4753 28.7308ZM29.4982 23.237C29.8083 23.1253 29.9749 22.7665 29.8703 22.4355C29.8592 22.3999 29.8444 22.3653 29.8277 22.3327L23.9492 10.9368C23.6474 10.3774 22.9782 10.1857 22.4553 10.5079C22.2886 10.6107 22.1498 10.7589 22.0535 10.9368L16.175 22.3327C16.0176 22.6391 16.1213 23.0235 16.4082 23.1915C16.4388 23.2093 16.4712 23.2251 16.5045 23.237L23.0014 25.5683L29.4982 23.237Z" fill="#396CE8"/>
</svg>
